X:1
T:Caprice No. 22
T:Caprice No. 22
T:Op. 20
T:Luigi Legnani (1790 - 1877)
C:Luigi Legnani
%%score ( 1 2 )
L:1/8
Q:1/4=60
M:6/8
K:Eb
V:1 treble-8 nm="Classical Guitar" snm="Guit."
V:2 treble-8 
V:1
"^Adagio"!p! ef |"^VIII" [eg]>ag/>a/ [fg]>ag/>a/ | [eg]>c'e'/>c'/ ged | %3
 [Gc][Gd][Ge] [c=e][cf]!>![Ac^f] |"^III" !>![=Bdg]>[ce][Bd]/>[ce]/ [Bd]ef | %5
!<(! [eg]>ag/>a/ [B_dg]>bg/>e/!<)! |!f! [cea]3/2{/b} a/4g/4 a/b/ c'/{/d'}c'/4=b/4 c'/d'/e'/^f/ | %7
 [ceg]>ag/>a/"^III" [=Bdg]>fd/>e/ | c3!>(! c_BA!>)! |!p!"^III" Bcd efg | %10
 !>![Bdg] (3z/ f/g/(3a/f/g/"^III" [GBe]BB | [Beg]fe"^I" [Ac]af |"^III" [GBe]{/f}e/d/e/f/ [FBd]BB | %13
 Bcd efg | !>![Bdg] (3z/ f/g/(3a/f/g/ [GBe] z !>![GB=e] | %15
"^I" [Acf] z/4 !-(!f/4!-)!d'/4c'/4b/4a/4g/4f/4 z [GBe][ABd] | %16
 [Adf]2 B!f!"^III" [GBe]/g/4g/4g/g/g/g/ | [=Bdg]2 [Bd] [ce][eg][ce] | %18
 [=Bd]2 !>![^Fcd]"^III" [GBd]/g/4g/4g/g/g/g/ | [=Bdg]2 [Bd] [ce][eg][ce] | %20
 [=Bd]2 !>![^Fce] [GBd]!p! ef | [eg]>ag/>a/ [fg]>ag/>a/ | [eg]>c'e'/>c'/ ged | %23
 [Gc][Gd][Ge] [c=e][cf]!>![Ac^f] | [=Bdg]>[ce][Bd]/>[ce]/ [Bd]ef | [eg]>ag/>a/ [B_dg]>bg/>e/ | %26
 [cea]3/2{/b} a/4g/4 a/b/ c'/{/d'}c'/4=b/4 c'/d'/e'/^f/ | [ceg]2 z [G=B]2 z | c3 =B/!>!a!>!gB/ | %29
 c3 =B/!>!a!>!gB/ | c[EGc][EGc] [EGc]3 |] %31
V:2
 z2 | C2 z D2 z | C2 z z2 z | EDC B,=A,!>!_A, | !>!G,2 G G,2 z | C2 z B,2 z | A,2 z z2 z | %7
 G,2 z G,2 z | z3/2 [DF]/G/>=B/ [CE]2 z | [EG]2 z [EGB]2 z | !>![A,A]2 z E2 z | G,2 z A,2 z | %12
 B,2 z B,2 z | [EG]2 z [EGB]2 z | !>![A,A]2 z E2 !>!C | F,2 z B,2 z | D2 B, E/G/G/G/G/G/ | %17
 G,/G/G,/G/G,/G/ G,/G/G,/G/G,/G/ | G,2 !>!A, G,/G/G/G/G/G/ | G,/G/G,/G/G,/G/ G,/G/G,/G/G,/G/ | %20
 G,2 !>!A, G,2 z | C2 z D2 z | C2 z z2 z | EDC B,=A,!>!_A, | G,2 G G,2 z | C2 z B,2 z | %26
 A,2 z z2 z | G,2 z [G,DF]2 z | %28
 C/4G/4E/4G/4E/4G/4E/4G/4E/4G/4E/4G/4 D/4G/4F/4G/4F/4G/4F/4G/4F/4G/4F/4G/4 | %29
 C/4G/4E/4G/4E/4G/4E/4G/4E/4G/4E/4G/4 D/4G/4F/4G/4F/4G/4F/4G/4F/4G/4F/4G/4 | CCC C3 |] %31

